svg/fluentui-system-icons/ic_fluent_calendar_toolbox_24_filled.svg

<svg width="24" height="24" viewBox="0 0 24 24" fill="none" xmlns="http://www.w3.org/2000/svg">
<path d="M11 16.5V21H6.25C4.45507 21 3 19.5449 3 17.75V8.5H21V11.8786C20.5245 11.4859 19.9148 11.25 19.25 11.25L15.6023 11.2539C14.1522 11.3306 13 12.5308 13 14V14.05C11.8589 14.2816 11 15.2905 11 16.5ZM21 6.25C21 4.45507 19.5449 3 17.75 3H6.25C4.45507 3 3 4.45507 3 6.25V7H21V6.25ZM14 15H13.5C12.6716 15 12 15.6716 12 16.5V18H14.5V17.75C14.5 17.3358 14.8358 17 15.25 17C15.6642 17 16 17.3358 16 17.75V18H19V17.75C19 17.3358 19.3358 17 19.75 17C20.1642 17 20.5 17.3358 20.5 17.75V18H23V16.5C23 15.6716 22.3284 15 21.5 15H21V14C21 13.0335 20.2165 12.25 19.25 12.25H15.75C14.7835 12.25 14 13.0335 14 14V15ZM15.5 14C15.5 13.8619 15.6119 13.75 15.75 13.75H19.25C19.3881 13.75 19.5 13.8619 19.5 14V15H15.5V14ZM12 21.5V19.5H14.5V20.25C14.5 20.6642 14.8358 21 15.25 21C15.6642 21 16 20.6642 16 20.25V19.5H19V20.25C19 20.6642 19.3358 21 19.75 21C20.1642 21 20.5 20.6642 20.5 20.25V19.5H23V21.5C23 22.3284 22.3284 23 21.5 23H13.5C12.6716 23 12 22.3284 12 21.5Z" fill="#212121"/>
</svg>

<svg xmlns="http://www.w3.org/2000/svg" width="24" height="24"><path d="M11 16.5V21H6.25A3.25 3.25 0 0 1 3 17.75V8.5h18v3.379a2.739 2.739 0 0 0-1.75-.629l-3.648.004A2.75 2.75 0 0 0 13 14v.05a2.5 2.5 0 0 0-2 2.45ZM21 6.25A3.25 3.25 0 0 0 17.75 3H6.25A3.25 3.25 0 0 0 3 6.25V7h18v-.75ZM14 15h-.5a1.5 1.5 0 0 0-1.5 1.5V18h2.5v-.25a.75.75 0 0 1 1.5 0V18h3v-.25a.75.75 0 0 1 1.5 0V18H23v-1.5a1.5 1.5 0 0 0-1.5-1.5H21v-1a1.75 1.75 0 0 0-1.75-1.75h-3.5A1.75 1.75 0 0 0 14 14v1Zm1.5-1a.25.25 0 0 1 .25-.25h3.5a.25.25 0 0 1 .25.25v1h-4v-1ZM12 21.5v-2h2.5v.75a.75.75 0 0 0 1.5 0v-.75h3v.75a.75.75 0 0 0 1.5 0v-.75H23v2a1.5 1.5 0 0 1-1.5 1.5h-8a1.5 1.5 0 0 1-1.5-1.5Z"/></svg>
